;FLAVOR:Marlin
;TIME:22230
;Filament used: 18.1433m
;Layer height: 0.15
;MINX:53.9
;MINY:45.92
;MINZ:0.3
;MAXX:166.1
;MAXY:193.72
;MAXZ:26.7
;Generated with Cura_SteamEngine 4.6.1
M140 S60
M105
M190 S60
M104 S200
M105
M109 S200
M82 ;absolute extrusion mode
G21 ;metric values
G90 ;absolute positioning
M82 ;set extruder to absolute mode
M107 ;start with the fan off
G28 X0 Y0 ;move X/Y to min endstops
G28 Z0 ;move Z to min endstops
G1 Z15.0 F9000 ;move the platform down 15mm
G92 E0 ;zero the extruded length
G1 F200 E3 ;extrude 3mm of feed stock
G92 E0 ;zero the extruded length again
G1 F9000
;Put printing message on LCD screen
M117 Printing...
G92 E0
G92 E0
G1 F1500 E-6.5
;LAYER_COUNT:177
;LAYER:0
M107
G0 F3600 X163.44 Y45.977 Z0.3
;TYPE:SKIRT
G1 F1500 E0
G1 F1800 X163.93 Y46.103 E0.02524
G1 X164.394 Y46.305 E0.05049
G1 X164.82 Y46.577 E0.07571
G1 X165.198 Y46.912 E0.1009
G1 X165.518 Y47.303 E0.12611
G1 X165.773 Y47.74 E0.15135
G1 X165.956 Y48.211 E0.17656
G1 X166.063 Y48.705 E0.20178
G1 X166.099 Y49.36 E0.23451
G1 X166.1 Y54.439 E0.4879
G1 X166.09 Y55.156 E0.52367
G1 X166.043 Y55.659 E0.54888
G1 X165.703 Y56.957 E0.61582
G1 X165.476 Y57.742 E0.65659
G1 X164.782 Y60.407 E0.79398
G1 X164.163 Y63.094 E0.93155
G1 X163.636 Y65.736 E1.06595
G1 X163.171 Y68.452 E1.20343
G1 X162.788 Y71.143 E1.33903
G1 X162.479 Y73.866 E1.47576
G1 X162.245 Y76.628 E1.61405
G1 X162.092 Y79.342 E1.74967
G1 X162.015 Y82.092 E1.88692
G1 X162.015 Y84.801 E2.02207
G1 X162.094 Y87.562 E2.15987
G1 X162.251 Y90.314 E2.29739
G1 X162.479 Y92.998 E2.43178
G1 X162.789 Y95.72 E2.56846
G1 X163.176 Y98.44 E2.70553
G1 X163.645 Y101.168 E2.84363
G1 X164.18 Y103.834 E2.97928
G1 X164.784 Y106.458 E3.11362
G1 X165.49 Y109.168 E3.25333
G1 X165.965 Y110.838 E3.33996
G1 X166.064 Y111.334 E3.36519
G1 X166.098 Y111.927 E3.39482
G1 X166.1 Y117.038 E3.64981
G1 X166.081 Y118.425 E3.71902
G1 X166.081 Y121.209 E3.85791
G1 X166.099 Y122.174 E3.90606
G1 X166.1 Y127.239 E4.15876
G1 X166.09 Y127.956 E4.19453
G1 X166.043 Y128.459 E4.21974
G1 X165.703 Y129.757 E4.28668
G1 X165.476 Y130.542 E4.32745
G1 X164.782 Y133.207 E4.46484
G1 X164.163 Y135.894 E4.6024
G1 X163.636 Y138.536 E4.73681
G1 X163.171 Y141.252 E4.87428
G1 X162.788 Y143.943 E5.00989
G1 X162.479 Y146.666 E5.14661
G1 X162.245 Y149.428 E5.2849
G1 X162.092 Y152.142 E5.42052
G1 X162.015 Y154.892 E5.55777
G1 X162.015 Y157.601 E5.69293
G1 X162.094 Y160.362 E5.83073
G1 X162.251 Y163.114 E5.96825
G1 X162.479 Y165.798 E6.10264
G1 X162.789 Y168.52 E6.23932
G1 X163.176 Y171.24 E6.37639
G1 X163.645 Y173.968 E6.51448
G1 X164.18 Y176.634 E6.65014
G1 X164.784 Y179.258 E6.78448
G1 X165.49 Y181.968 E6.92419
G1 X165.965 Y183.638 E7.01081
G1 X166.064 Y184.134 E7.03605
G1 X166.098 Y184.727 E7.06568
G1 X166.1 Y189.824 E7.31997
G1 X166.091 Y190.551 E7.35624
G1 X166.045 Y191.054 E7.38144
G1 X165.92 Y191.544 E7.40667
G1 X165.719 Y192.008 E7.4319
G1 X165.448 Y192.435 E7.45713
G1 X165.113 Y192.814 E7.48237
G1 X164.723 Y193.135 E7.50757
G1 X164.287 Y193.391 E7.53279
G1 X163.816 Y193.574 E7.558
G1 X163.322 Y193.682 E7.58323
G1 X162.66 Y193.719 E7.61631
G1 X57.766 Y193.72 E12.84949
G1 X57.068 Y193.711 E12.88432
G1 X56.564 Y193.664 E12.90957
G1 X56.074 Y193.539 E12.9348
G1 X55.61 Y193.338 E12.96003
G1 X55.184 Y193.067 E12.98522
G1 X54.805 Y192.732 E13.01045
G1 X54.484 Y192.341 E13.03569
G1 X54.229 Y191.905 E13.06089
G1 X54.045 Y191.434 E13.08612
G1 X53.938 Y190.94 E13.11134
G1 X53.901 Y190.264 E13.14511
G1 X53.9 Y185.181 E13.3987
G1 X53.91 Y184.484 E13.43348
G1 X53.957 Y183.981 E13.45869
G1 X54.297 Y182.683 E13.52563
G1 X54.524 Y181.898 E13.5664
G1 X55.22 Y179.225 E13.7042
G1 X55.837 Y176.546 E13.84135
G1 X56.368 Y173.883 E13.97683
G1 X56.829 Y171.188 E14.11323
G1 X57.212 Y168.495 E14.24894
G1 X57.523 Y165.756 E14.38647
G1 X57.755 Y163.012 E14.52386
G1 X57.908 Y160.298 E14.65947
G1 X57.985 Y157.548 E14.79672
G1 X57.985 Y154.829 E14.93238
G1 X57.906 Y152.078 E15.06968
G1 X57.749 Y149.328 E15.2071
G1 X57.519 Y146.619 E15.34274
G1 X57.211 Y143.914 E15.47857
G1 X56.824 Y141.2 E15.61534
G1 X56.355 Y138.471 E15.75348
G1 X55.82 Y135.806 E15.88909
G1 X55.21 Y133.16 E16.02457
G1 X54.509 Y130.468 E16.16335
G1 X54.033 Y128.801 E16.24984
G1 X53.933 Y128.306 E16.27503
G1 X53.901 Y127.686 E16.30601
G1 X53.9 Y122.567 E16.5614
G1 X53.919 Y121.214 E16.6289
G1 X53.919 Y118.431 E16.76775
G1 X53.901 Y117.466 E16.8159
G1 X53.9 Y112.381 E17.06959
G1 X53.91 Y111.684 E17.10437
G1 X53.957 Y111.181 E17.12957
G1 X54.297 Y109.883 E17.19652
G1 X54.524 Y109.098 E17.23728
G1 X55.22 Y106.425 E17.37509
G1 X55.837 Y103.746 E17.51224
G1 X56.368 Y101.083 E17.64771
G1 X56.829 Y98.388 E17.78412
G1 X57.212 Y95.695 E17.91983
G1 X57.523 Y92.956 E18.05736
G1 X57.755 Y90.212 E18.19474
G1 X57.908 Y87.498 E18.33036
G1 X57.985 Y84.748 E18.46761
G1 X57.985 Y82.029 E18.60326
G1 X57.906 Y79.278 E18.74057
G1 X57.749 Y76.528 E18.87799
G1 X57.519 Y73.819 E19.01363
G1 X57.211 Y71.114 E19.14945
G1 X56.824 Y68.4 E19.28622
G1 X56.355 Y65.671 E19.42437
G1 X55.82 Y63.006 E19.55998
G1 X55.21 Y60.36 E19.69545
G1 X54.509 Y57.668 E19.83424
G1 X54.033 Y56.001 E19.92073
G1 X53.933 Y55.506 E19.94592
G1 X53.901 Y54.886 E19.97689
G1 X53.9 Y49.751 E20.23308
G1 X53.909 Y49.086 E20.26626
G1 X53.956 Y48.582 E20.29151
G1 X54.082 Y48.093 E20.31671
G1 X54.283 Y47.629 E20.34194
G1 X54.554 Y47.202 E20.36717
G1 X54.889 Y46.824 E20.39237
G1 X55.28 Y46.503 E20.4176
G1 X55.717 Y46.248 E20.44285
G1 X56.188 Y46.064 E20.46807
G1 X56.682 Y45.958 E20.49328
G1 X57.34 Y45.921 E20.52616
G1 X162.239 Y45.92 E25.75959
G1 X162.937 Y45.93 E25.79442
G1 X163.44 Y45.977 E25.81962
G1 F1500 E19.31962
;MESH:BrausteuerungBox.stl
G0 F3600 X162.286 Y48.455
G0 X162.286 Y49.734
G0 X161.464 Y52.628
G0 X160.721 Y53.614
G0 X160.673 Y53.527
;TYPE:WALL-INNER
G1 F1500 E25.81962
G1 F1800 X160.998 Y53.289 E25.83972
G1 X161.254 Y52.979 E25.85978
G1 X161.426 Y52.616 E25.87982
G1 X161.501 Y52.22 E25.89993
G1 X161.476 Y51.818 E25.92002
G1 X161.352 Y51.436 E25.94006
G1 X161.136 Y51.096 E25.96015
G1 X160.844 Y50.822 E25.98013
G1 X160.491 Y50.628 E26.00023
G1 X160.102 Y50.527 E26.02028
G1 X159.698 Y50.527 E26.04043
G1 X159.309 Y50.629 E26.0605
G1 X158.958 Y50.821 E26.08046
G1 X158.664 Y51.095 E26.10051
G1 X158.447 Y51.437 E26.12071
G1 X158.324 Y51.819 E26.14074
G1 X158.299 Y52.22 E26.16078
G1 X158.374 Y52.616 E26.18089
G1 X158.546 Y52.979 E26.20093
G1 X158.8 Y53.289 E26.22092
G1 X159.127 Y53.527 E26.2411
G1 X159.501 Y53.673 E26.26113
G1 X159.9 Y53.725 E26.28121
G1 X160.299 Y53.673 E26.30128
G1 X160.673 Y53.527 E26.32131
G0 F3600 X160.721 Y53.614
G0 X158.03 Y54.45
G0 X158.1 Y54.52
G1 F1800 X158.1 Y112.32 E29.20496
G1 X162.3 Y112.32 E29.4145
G1 X162.3 Y117.12 E29.65398
G1 X57.7 Y117.12 E34.87249
G1 X57.7 Y112.32 E35.11196
G1 X61.9 Y112.32 E35.3215
G1 X61.9 Y54.52 E38.20516
G1 X57.7 Y54.52 E38.4147
G1 X57.7 Y49.72 E38.65417
G1 X162.3 Y49.72 E43.87268
G1 X162.3 Y54.52 E44.11216
G1 X158.1 Y54.52 E44.3217
G0 F3600 X158.03 Y54.45
G0 X158.072 Y112.348
G0 X160.591 Y113.244
G0 X161.388 Y114.019
G0 X161.54 Y114.822
G0 X160.721 Y116.214
G0 X160.673 Y116.127
G1 F1800 X160.998 Y115.889 E44.34179
G1 X161.254 Y115.579 E44.36185
G1 X161.426 Y115.216 E44.38189
G1 X161.501 Y114.82 E44.402
G1 X161.476 Y114.418 E44.42209
G1 X161.352 Y114.036 E44.44213
G1 X161.136 Y113.696 E44.46223
G1 X160.844 Y113.422 E44.4822
G1 X160.491 Y113.228 E44.5023
G1 X160.102 Y113.127 E44.52235
G1 X159.698 Y113.127 E44.54251
G1 X159.309 Y113.229 E44.56257
G1 X158.958 Y113.421 E44.58253
G1 X158.664 Y113.695 E44.60258
G1 X158.447 Y114.037 E44.62279
G1 X158.324 Y114.419 E44.64281
G1 X158.299 Y114.82 E44.66285
G1 X158.374 Y115.216 E44.68296
G1 X158.546 Y115.579 E44.703
G1 X158.8 Y115.889 E44.723
G1 X159.127 Y116.127 E44.74317
G1 X159.501 Y116.273 E44.7632
G1 X159.9 Y116.325 E44.78328
G1 X160.299 Y116.273 E44.80335
G1 X160.673 Y116.127 E44.82338
G0 F3600 X160.721 Y116.214
G0 X60.1 Y116.425
G0 X60.1 Y116.325
G1 F1800 X60.499 Y116.273 E44.84346
G1 X60.873 Y116.127 E44.86349
G1 X61.2 Y115.889 E44.88367
G1 X61.454 Y115.579 E44.90366
G1 X61.626 Y115.216 E44.9237
G1 X61.701 Y114.82 E44.94381
G1 X61.676 Y114.419 E44.96385
G1 X61.553 Y114.037 E44.98387
G1 X61.336 Y113.695 E45.00408
G1 X61.042 Y113.421 E45.02413
G1 X60.691 Y113.229 E45.04409
G1 X60.302 Y113.127 E45.06416
G1 X59.898 Y113.127 E45.08431
G1 X59.509 Y113.229 E45.10437
G1 X59.158 Y113.421 E45.12433
G1 X58.864 Y113.695 E45.14439
G1 X58.647 Y114.037 E45.16459
G1 X58.524 Y114.419 E45.18461
G1 X58.499 Y114.82 E45.20466
G1 X58.574 Y115.216 E45.22477
G1 X58.746 Y115.579 E45.24481
G1 X59 Y115.889 E45.2648
G1 X59.327 Y116.127 E45.28498
G1 X59.701 Y116.273 E45.30501
G1 X60.1 Y116.325 E45.32508
G0 F3600 X60.1 Y116.425
G0 X59.308 Y116.162
G0 X58.713 Y115.6
G0 X58.46 Y114.822
G0 X58.611 Y114.021
G0 X60.1 Y112.36
G0 X61.928 Y112.348
G0 X61.928 Y54.492
G0 X60.1 Y53.825
G0 X60.1 Y53.725
G1 F1800 X60.499 Y53.673 E45.34516
G1 X60.873 Y53.527 E45.36519
G1 X61.2 Y53.289 E45.38537
G1 X61.454 Y52.979 E45.40536
G1 X61.626 Y52.616 E45.4254
G1 X61.701 Y52.22 E45.44551
G1 X61.676 Y51.819 E45.46555
G1 X61.553 Y51.437 E45.48558
G1 X61.336 Y51.095 E45.50578
G1 X61.042 Y50.821 E45.52583
G1 X60.691 Y50.629 E45.54579
G1 X60.302 Y50.527 E45.56586
G1 X59.898 Y50.527 E45.58601
G1 X59.509 Y50.629 E45.60608
G1 X59.158 Y50.821 E45.62604
G1 X58.864 Y51.095 E45.64609
G1 X58.647 Y51.437 E45.66629
G1 X58.524 Y51.819 E45.68631
G1 X58.499 Y52.22 E45.70636
G1 X58.574 Y52.616 E45.72647
G1 X58.746 Y52.979 E45.74651
G1 X59 Y53.289 E45.7665
G1 X59.327 Y53.527 E45.78668
G1 X59.701 Y53.673 E45.80671
G1 X60.1 Y53.725 E45.82678
G0 F3600 X60.1 Y53.322
;TYPE:WALL-OUTER
G1 F1800 X60.399 Y53.283 E45.84183
G1 X60.679 Y53.173 E45.85684
G1 X60.923 Y52.996 E45.87188
G1 X61.114 Y52.763 E45.88691
G1 X61.243 Y52.491 E45.90192
G1 X61.299 Y52.195 E45.91695
G1 X61.28 Y51.894 E45.932
G1 X61.188 Y51.608 E45.94699
G1 X61.026 Y51.353 E45.96206
G1 X60.806 Y51.148 E45.97706
G1 X60.542 Y51.003 E45.99209
G1 X60.251 Y50.927 E46.0071
G1 X59.949 Y50.927 E46.02216
G1 X59.658 Y51.003 E46.03717
G1 X59.394 Y51.148 E46.0522
G1 X59.174 Y51.353 E46.0672
G1 X59.012 Y51.608 E46.08227
G1 X58.92 Y51.894 E46.09726
G1 X58.901 Y52.195 E46.11231
G1 X58.957 Y52.491 E46.12733
G1 X59.086 Y52.763 E46.14235
G1 X59.277 Y52.996 E46.15738
G1 X59.521 Y53.173 E46.17242
G1 X59.801 Y53.283 E46.18743
G1 X60.1 Y53.322 E46.20248
G0 F3600 X60.298 Y53.297
G0 X60.361 Y53.792
G0 X61.928 Y54.492
G0 X61.928 Y112.348
G0 X59.495 Y113.192
G0 X58.834 Y113.67
G0 X58.485 Y114.412
G0 X58.536 Y115.228
G0 X58.973 Y115.918
G0 X60.036 Y116.417
G0 X60.1 Y115.922
G1 F1800 X60.399 Y115.883 E46.21752
G1 X60.679 Y115.773 E46.23253
G1 X60.923 Y115.596 E46.24757
G1 X61.114 Y115.363 E46.2626
G1 X61.243 Y115.091 E46.27762
G1 X61.299 Y114.795 E46.29265
G1 X61.28 Y114.494 E46.30769
G1 X61.188 Y114.208 E46.32268
G1 X61.026 Y113.953 E46.33775
G1 X60.806 Y113.748 E46.35276
G1 X60.542 Y113.603 E46.36778
G1 X60.251 Y113.527 E46.38279
G1 X59.949 Y113.527 E46.39785
G1 X59.658 Y113.603 E46.41286
G1 X59.394 Y113.748 E46.42789
G1 X59.174 Y113.953 E46.44289
G1 X59.012 Y114.208 E46.45796
G1 X58.92 Y114.494 E46.47295
G1 X58.901 Y114.795 E46.488
G1 X58.957 Y115.091 E46.50303
G1 X59.086 Y115.363 E46.51804
G1 X59.277 Y115.596 E46.53308
G1 X59.521 Y115.773 E46.54811
G1 X59.801 Y115.883 E46.56312
G1 X60.1 Y115.922 E46.57817
G0 F3600 X60.298 Y115.897
G0 X60.361 Y116.392
G0 X159.836 Y116.417
G0 X159.9 Y115.922
G1 F1800 X160.199 Y115.883 E46.59321
G1 X160.479 Y115.773 E46.60822
G1 X160.722 Y115.596 E46.62322
G1 X160.914 Y115.363 E46.63828
G1 X161.043 Y115.091 E46.6533
G1 X161.099 Y114.795 E46.66833
G1 X161.08 Y114.494 E46.68338
G1 X160.987 Y114.208 E46.69838
G1 X160.825 Y113.953 E46.71345
G1 X160.607 Y113.748 E46.72838
G1 X160.342 Y113.603 E46.74345
G1 X160.051 Y113.527 E46.75846
G1 X159.749 Y113.527 E46.77352
G1 X159.458 Y113.603 E46.78853
G1 X159.194 Y113.748 E46.80356
G1 X158.974 Y113.953 E46.81856
G1 X158.812 Y114.208 E46.83363
G1 X158.72 Y114.494 E46.84862
G1 X158.701 Y114.795 E46.86367
G1 X158.757 Y115.091 E46.87869
G1 X158.886 Y115.363 E46.89371
G1 X159.077 Y115.596 E46.90874
G1 X159.321 Y115.773 E46.92378
G1 X159.601 Y115.883 E46.93879
G1 X159.9 Y115.922 E46.95384
G0 F3600 X160.098 Y115.897
G0 X160.161 Y116.392
G0 X161.025 Y115.918
G0 X161.464 Y115.228
G0 X161.515 Y114.411
G0 X161.166 Y113.671
G0 X160.018 Y112.359
G0 X158.072 Y112.348
G0 X158 Y54.92
G0 X158.5 Y54.92
G1 F1800 X158.5 Y111.92 E49.79758
G1 X162.7 Y111.92 E50.00712
G1 X162.7 Y117.52 E50.2865
G1 X57.3 Y117.52 E55.54493
G1 X57.3 Y111.92 E55.82431
G1 X61.5 Y111.92 E56.03385
G1 X61.5 Y54.92 E58.87759
G1 X57.3 Y54.92 E59.08713
G1 X57.3 Y49.32 E59.36652
G1 X162.7 Y49.32 E64.62495
G1 X162.7 Y54.92 E64.90433
G1 X158.5 Y54.92 E65.11387
G0 F3600 X158.5 Y55.12
G0 X158 Y55.12
G0 X159.836 Y53.817
G0 X159.9 Y53.322
G1 F1800 X160.199 Y53.283 E65.12891
G1 X160.479 Y53.173 E65.14392
G1 X160.722 Y52.996 E65.15892
G1 X160.914 Y52.763 E65.17398
G1 X161.043 Y52.491 E65.189
G1 X161.099 Y52.195 E65.20403
G1 X161.08 Y51.894 E65.21908
G1 X160.987 Y51.608 E65.23408
G1 X160.825 Y51.353 E65.24915
G1 X160.607 Y51.148 E65.26408
G1 X160.342 Y51.003 E65.27915
G1 X160.051 Y50.927 E65.29416
G1 X159.749 Y50.927 E65.30923
G1 X159.458 Y51.003 E65.32423
G1 X159.194 Y51.148 E65.33926
G1 X158.974 Y51.353 E65.35426
G1 X158.812 Y51.608 E65.36933
G1 X158.72 Y51.894 E65.38432
G1 X158.701 Y52.195 E65.39937
G1 X158.757 Y52.491 E65.4144
G1 X158.886 Y52.763 E65.42942
G1 X159.077 Y52.996 E65.44445
G1 X159.321 Y53.173 E65.45949
G1 X159.601 Y53.283 E65.47449
G1 X159.9 Y53.322 E65.48954
G0 F3600 X160.098 Y53.297
G0 X160.397 Y54.053
;TYPE:SKIN
G1 F1800 X160.862 Y53.872 E65.51443
G1 X161.267 Y53.575 E65.53949
G1 X161.586 Y53.19 E65.56443
G1 X161.8 Y52.737 E65.58943
G1 X161.893 Y52.245 E65.61441
G1 X161.862 Y51.744 E65.63945
G1 X161.707 Y51.268 E65.66443
G1 X161.438 Y50.845 E65.68944
G1 X161.074 Y50.504 E65.71432
G1 X160.636 Y50.263 E65.73926
G1 X160.152 Y50.137 E65.76421
G1 X159.647 Y50.137 E65.78941
G1 X159.164 Y50.264 E65.81432
G1 X158.728 Y50.503 E65.83913
G1 X158.362 Y50.843 E65.86405
G1 X158.091 Y51.27 E65.88928
G1 X157.938 Y51.747 E65.91428
G1 X157.907 Y52.245 E65.93917
G1 X158 Y52.737 E65.96415
G1 X158.214 Y53.189 E65.9891
G1 X158.53 Y53.575 E66.01399
G1 X158.938 Y53.872 E66.03917
G1 X159.403 Y54.053 E66.06406
G1 X159.9 Y54.119 E66.08907
G1 X160.397 Y54.053 E66.11409
G0 F3600 X161.91 Y54.13
G1 F1800 X157.71 Y54.13 E66.32362
G1 X157.71 Y112.71 E69.24619
G1 X161.91 Y112.71 E69.45573
G1 X161.91 Y116.73 E69.65629
G1 X58.09 Y116.73 E74.83589
G1 X58.09 Y112.71 E75.03645
G1 X62.29 Y112.71 E75.24599
G1 X62.29 Y54.13 E78.16856
G1 X58.09 Y54.13 E78.3781
G1 X58.09 Y50.11 E78.57865
G1 X161.91 Y50.11 E83.75826
G1 X161.91 Y54.13 E83.95881
G0 F3600 X158.072 Y54.492
G0 X158.072 Y112.348
G0 X160.152 Y112.737
G1 F1800 X159.647 Y112.737 E83.98401
G1 X159.164 Y112.864 E84.00892
G1 X158.728 Y113.103 E84.03373
G1 X158.362 Y113.443 E84.05865
G1 X158.091 Y113.87 E84.08388
G1 X157.938 Y114.347 E84.10888
G1 X157.907 Y114.845 E84.13377
G1 X158 Y115.337 E84.15875
G1 X158.214 Y115.789 E84.1837
G1 X158.53 Y116.175 E84.20859
G1 X158.938 Y116.472 E84.23377
G1 X159.403 Y116.653 E84.25866
G1 X159.9 Y116.719 E84.28367
G1 X160.397 Y116.653 E84.30869
G1 X160.862 Y116.472 E84.33358
G1 X161.267 Y116.175 E84.35864
G1 X161.586 Y115.79 E84.38358
G1 X161.8 Y115.337 E84.40858
G1 X161.893 Y114.845 E84.43356
G1 X161.862 Y114.344 E84.4586
G1 X161.707 Y113.868 E84.48357
G1 X161.438 Y113.445 E84.50858
G1 X161.074 Y113.104 E84.53347
G1 X160.636 Y112.863 E84.55841
G1 X160.152 Y112.737 E84.58336
G0 F3600 X61.909 Y113.87
G1 F1800 X61.638 Y113.443 E84.60859
G1 X61.272 Y113.103 E84.63352
G1 X60.836 Y112.864 E84.65832
G1 X60.353 Y112.737 E84.68324
G1 X59.847 Y112.737 E84.70848
G1 X59.364 Y112.864 E84.7334
G1 X58.928 Y113.103 E84.7582
G1 X58.562 Y113.443 E84.78313
G1 X58.291 Y113.87 E84.80836
G1 X58.138 Y114.347 E84.83335
G1 X58.107 Y114.845 E84.85824
G1 X58.2 Y115.337 E84.88322
G1 X58.414 Y115.789 E84.90817
G1 X58.73 Y116.175 E84.93306
G1 X59.138 Y116.472 E84.95824
G1 X59.603 Y116.653 E84.98313
