;FLAVOR:Marlin
;TIME:15331
;Filament used: 14.16m
;Layer height: 0.15
;MINX:52.95
;MINY:46.586
;MINZ:0.3
;MAXX:167.05
;MAXY:199.186
;MAXZ:26.4
;Generated with Cura_SteamEngine 4.6.1
M140 S60
M105
M190 S60
M104 S200
M105
M109 S200
M82 ;absolute extrusion mode
G21 ;metric values
G90 ;absolute positioning
M82 ;set extruder to absolute mode
M107 ;start with the fan off
G28 X0 Y0 ;move X/Y to min endstops
G28 Z0 ;move Z to min endstops
G1 Z15.0 F9000 ;move the platform down 15mm
G92 E0 ;zero the extruded length
G1 F200 E3 ;extrude 3mm of feed stock
G92 E0 ;zero the extruded length again
G1 F9000
;Put printing message on LCD screen
M117 Printing...
G92 E0
G92 E0
G1 F1500 E-6.5
;LAYER_COUNT:175
;LAYER:0
M107
G0 F3600 X54.83 Y49.327 Z0.3
;TYPE:SKIRT
G1 F1500 E0
G1 F1800 X55.373 Y48.754 E0.03938
G1 X55.972 Y48.239 E0.0788
G1 X56.62 Y47.788 E0.11818
G1 X57.311 Y47.404 E0.15762
G1 X58.036 Y47.092 E0.197
G1 X58.789 Y46.855 E0.23638
G1 X59.563 Y46.696 E0.27581
G1 X60.701 Y46.605 E0.33276
G1 X63.701 Y46.586 E0.48244
G1 X64.49 Y46.621 E0.52184
G1 X65.271 Y46.736 E0.56122
G1 X66.037 Y46.929 E0.60063
G1 X66.779 Y47.198 E0.64001
G1 X67.49 Y47.541 E0.67939
G1 X68.163 Y47.954 E0.71879
G1 X68.325 Y48.077 E0.72893
G1 X151.678 Y48.086 E4.88743
G1 X152.12 Y47.778 E4.91431
G1 X152.811 Y47.394 E4.95375
G1 X153.536 Y47.082 E4.99313
G1 X154.289 Y46.845 E5.03251
G1 X155.063 Y46.686 E5.07193
G1 X156.227 Y46.595 E5.13018
G1 X159.227 Y46.586 E5.27985
G1 X160.015 Y46.624 E5.31921
G1 X160.796 Y46.741 E5.35861
G1 X161.561 Y46.936 E5.398
G1 X162.303 Y47.208 E5.43743
G1 X163.013 Y47.554 E5.47683
G1 X163.684 Y47.969 E5.51619
G1 X164.311 Y48.45 E5.55562
G1 X164.885 Y48.993 E5.59504
G1 X165.401 Y49.59 E5.63441
G1 X165.855 Y50.236 E5.6738
G1 X166.24 Y50.926 E5.71322
G1 X166.554 Y51.65 E5.75259
G1 X166.794 Y52.403 E5.79202
G1 X166.956 Y53.176 E5.83142
G1 X167.038 Y53.961 E5.8708
G1 X167.05 Y57.369 E6.04083
G1 X167.01 Y58.158 E6.08024
G1 X166.891 Y58.938 E6.1196
G1 X166.693 Y59.703 E6.15903
G1 X166.419 Y60.443 E6.1984
G1 X166.071 Y61.152 E6.2378
G1 X165.653 Y61.823 E6.27724
G1 X165.55 Y61.956 E6.28563
G1 X165.55 Y113.801 E8.87219
G1 X165.867 Y114.256 E8.89986
G1 X166.251 Y114.947 E8.9393
G1 X166.563 Y115.672 E8.97867
G1 X166.8 Y116.425 E9.01806
G1 X166.959 Y117.199 E9.05748
G1 X167.04 Y117.984 E9.09685
G1 X167.05 Y121.367 E9.26563
G1 X167.01 Y122.156 E9.30504
G1 X166.897 Y122.897 E9.34244
G1 X166.959 Y123.199 E9.35782
G1 X167.04 Y123.984 E9.39719
G1 X167.05 Y127.386 E9.56692
G1 X167.01 Y128.175 E9.60633
G1 X166.891 Y128.955 E9.6457
G1 X166.693 Y129.72 E9.68512
G1 X166.419 Y130.46 E9.72449
G1 X166.071 Y131.169 E9.76389
G1 X165.653 Y131.84 E9.80333
G1 X165.55 Y131.973 E9.81173
G1 X165.55 Y183.801 E12.39744
G1 X165.867 Y184.256 E12.4251
G1 X166.251 Y184.947 E12.46454
G1 X166.563 Y185.672 E12.50392
G1 X166.8 Y186.425 E12.5433
G1 X166.959 Y187.199 E12.58272
G1 X167.04 Y187.984 E12.6221
G1 X167.05 Y191.386 E12.79182
G1 X167.01 Y192.175 E12.83124
G1 X166.891 Y192.955 E12.8706
G1 X166.693 Y193.72 E12.91003
G1 X166.419 Y194.46 E12.94939
G1 X166.071 Y195.169 E12.9888
G1 X165.653 Y195.84 E13.02824
G1 X165.17 Y196.464 E13.06761
G1 X164.627 Y197.037 E13.10699
G1 X164.028 Y197.552 E13.1464
G1 X163.38 Y198.003 E13.18579
G1 X162.689 Y198.387 E13.22523
G1 X161.964 Y198.699 E13.26461
G1 X161.211 Y198.936 E13.30399
G1 X160.437 Y199.095 E13.34341
G1 X159.652 Y199.176 E13.38278
G1 X156.25 Y199.186 E13.55251
G1 X155.461 Y199.146 E13.59192
G1 X154.681 Y199.027 E13.63129
G1 X153.916 Y198.829 E13.67071
G1 X153.176 Y198.555 E13.71008
G1 X152.467 Y198.207 E13.74948
G1 X151.796 Y197.789 E13.78892
G1 X151.663 Y197.686 E13.79732
G1 X68.335 Y197.686 E17.95457
G1 X67.88 Y198.003 E17.98223
G1 X67.189 Y198.387 E18.02167
G1 X66.464 Y198.699 E18.06105
G1 X65.711 Y198.936 E18.10044
G1 X64.937 Y199.095 E18.13986
G1 X64.152 Y199.176 E18.17923
G1 X60.75 Y199.186 E18.34896
G1 X59.961 Y199.146 E18.38837
G1 X59.181 Y199.027 E18.42773
G1 X58.416 Y198.829 E18.46716
G1 X57.676 Y198.555 E18.50653
G1 X56.967 Y198.207 E18.54593
G1 X56.296 Y197.789 E18.58537
G1 X55.672 Y197.306 E18.62474
G1 X55.099 Y196.763 E18.66412
G1 X54.584 Y196.164 E18.70353
G1 X54.133 Y195.516 E18.74292
G1 X53.749 Y194.825 E18.78236
G1 X53.437 Y194.1 E18.82174
G1 X53.2 Y193.347 E18.86112
G1 X53.041 Y192.573 E18.90054
G1 X52.96 Y191.788 E18.93992
G1 X52.95 Y188.386 E19.10964
G1 X52.99 Y187.597 E19.14906
G1 X53.109 Y186.817 E19.18842
G1 X53.307 Y186.052 E19.22785
G1 X53.581 Y185.312 E19.26721
G1 X53.929 Y184.603 E19.30662
G1 X54.347 Y183.932 E19.34606
G1 X54.45 Y183.799 E19.35445
G1 X54.45 Y131.971 E21.94016
G1 X54.133 Y131.516 E21.96783
G1 X53.749 Y130.825 E22.00727
G1 X53.437 Y130.1 E22.04664
G1 X53.2 Y129.347 E22.08603
G1 X53.041 Y128.573 E22.12545
G1 X52.96 Y127.788 E22.16482
G1 X52.95 Y124.386 E22.33455
G1 X52.99 Y123.597 E22.37396
G1 X53.101 Y122.869 E22.4107
G1 X53.044 Y122.596 E22.42461
G1 X52.962 Y121.811 E22.46399
G1 X52.95 Y118.403 E22.63402
G1 X52.99 Y117.614 E22.67343
G1 X53.109 Y116.834 E22.7128
G1 X53.307 Y116.069 E22.75222
G1 X53.581 Y115.329 E22.79159
G1 X53.929 Y114.62 E22.83099
G1 X54.347 Y113.949 E22.87043
G1 X54.45 Y113.816 E22.87883
G1 X54.45 Y61.971 E25.46538
G1 X54.133 Y61.516 E25.49305
G1 X53.749 Y60.825 E25.53249
G1 X53.437 Y60.1 E25.57187
G1 X53.2 Y59.347 E25.61125
G1 X53.041 Y58.573 E25.65067
G1 X52.96 Y57.788 E25.69004
G1 X52.95 Y54.405 E25.85882
G1 X52.99 Y53.616 E25.89824
G1 X53.109 Y52.836 E25.9376
G1 X53.307 Y52.071 E25.97702
G1 X53.581 Y51.331 E26.01639
G1 X53.929 Y50.622 E26.0558
G1 X54.347 Y49.951 E26.09524
G1 X54.83 Y49.327 E26.1346
G0 F3600 X55.225 Y49.482
G1 F1800 X55.766 Y48.935 E26.17299
G1 X56.361 Y48.447 E26.21138
G1 X57.003 Y48.024 E26.24974
G1 X57.686 Y47.669 E26.28814
G1 X58.401 Y47.388 E26.32647
G1 X59.143 Y47.182 E26.36489
G1 X59.901 Y47.054 E26.40324
G1 X60.703 Y47.005 E26.44332
G1 X63.703 Y46.986 E26.593
G1 X64.471 Y47.021 E26.63135
G1 X65.232 Y47.136 E26.66975
G1 X65.977 Y47.329 E26.70815
G1 X66.697 Y47.598 E26.74649
G1 X67.386 Y47.941 E26.78489
G1 X68.035 Y48.353 E26.82324
G1 X68.192 Y48.477 E26.83322
G1 X151.802 Y48.486 E31.00454
G1 X152.503 Y48.014 E31.04671
G1 X153.186 Y47.659 E31.08511
G1 X153.901 Y47.378 E31.12344
G1 X154.643 Y47.172 E31.16185
G1 X155.401 Y47.044 E31.20021
G1 X156.228 Y46.995 E31.24154
G1 X159.228 Y46.986 E31.39121
G1 X159.996 Y47.024 E31.42957
G1 X160.756 Y47.141 E31.46794
G1 X161.5 Y47.336 E31.50631
G1 X162.22 Y47.608 E31.54471
G1 X162.907 Y47.953 E31.58306
G1 X163.555 Y48.367 E31.62142
G1 X164.157 Y48.847 E31.65984
G1 X164.705 Y49.386 E31.69818
G1 X165.195 Y49.979 E31.73656
G1 X165.62 Y50.62 E31.77493
G1 X165.977 Y51.302 E31.81334
G1 X166.26 Y52.016 E31.85165
G1 X166.468 Y52.757 E31.89005
G1 X166.599 Y53.515 E31.92843
G1 X166.65 Y54.386 E31.97196
G1 X166.65 Y57.369 E32.12078
G1 X166.61 Y58.137 E32.15915
G1 X166.491 Y58.897 E32.19753
G1 X166.293 Y59.64 E32.23589
G1 X166.019 Y60.359 E32.27428
G1 X165.672 Y61.045 E32.31263
G1 X165.256 Y61.692 E32.35101
G1 X165.15 Y61.824 E32.35945
G1 X165.15 Y113.926 E34.95883
G1 X165.631 Y114.639 E35.00174
G1 X165.986 Y115.322 E35.04014
G1 X166.267 Y116.037 E35.07847
G1 X166.473 Y116.779 E35.11689
G1 X166.601 Y117.537 E35.15524
G1 X166.65 Y118.386 E35.19767
G1 X166.65 Y121.367 E35.34639
G1 X166.61 Y122.135 E35.38476
G1 X166.492 Y122.89 E35.42288
G1 X166.601 Y123.537 E35.45562
G1 X166.65 Y124.386 E35.49804
G1 X166.65 Y127.386 E35.64772
G1 X166.61 Y128.154 E35.68608
G1 X166.491 Y128.914 E35.72446
G1 X166.293 Y129.657 E35.76282
G1 X166.019 Y130.376 E35.80121
G1 X165.672 Y131.062 E35.83957
G1 X165.256 Y131.709 E35.87794
G1 X165.15 Y131.841 E35.88639
G1 X165.15 Y183.926 E38.48492
G1 X165.631 Y184.639 E38.52783
G1 X165.986 Y185.322 E38.56623
G1 X166.267 Y186.037 E38.60456
G1 X166.473 Y186.779 E38.64298
G1 X166.601 Y187.537 E38.68133
G1 X166.65 Y188.386 E38.72376
G1 X166.65 Y191.386 E38.87343
G1 X166.61 Y192.154 E38.91179
G1 X166.491 Y192.914 E38.95017
G1 X166.293 Y193.657 E38.98853
G1 X166.019 Y194.376 E39.02692
G1 X165.672 Y195.062 E39.06528
G1 X165.256 Y195.709 E39.10365
G1 X164.775 Y196.309 E39.14202
G1 X164.234 Y196.856 E39.1804
G1 X163.639 Y197.344 E39.21879
G1 X162.997 Y197.767 E39.25715
G1 X162.314 Y198.122 E39.29555
G1 X161.599 Y198.403 E39.33388
G1 X160.857 Y198.609 E39.3723
G1 X160.099 Y198.737 E39.41065
G1 X159.25 Y198.786 E39.45308
G1 X156.25 Y198.786 E39.60275
G1 X155.482 Y198.746 E39.64112
G1 X154.722 Y198.627 E39.67949
G1 X153.979 Y198.429 E39.71786
G1 X153.26 Y198.155 E39.75624
G1 X152.574 Y197.808 E39.7946
G1 X151.927 Y197.392 E39.83297
G1 X151.795 Y197.286 E39.84142
G1 X68.21 Y197.286 E44.01149
G1 X67.497 Y197.767 E44.0544
G1 X66.814 Y198.122 E44.0928
G1 X66.099 Y198.403 E44.13113
G1 X65.357 Y198.609 E44.16955
G1 X64.599 Y198.737 E44.2079
G1 X63.75 Y198.786 E44.25033
G1 X60.75 Y198.786 E44.4
G1 X59.982 Y198.746 E44.43837
G1 X59.222 Y198.627 E44.47675
G1 X58.479 Y198.429 E44.51511
G1 X57.76 Y198.155 E44.5535
G1 X57.074 Y197.808 E44.59185
G1 X56.427 Y197.392 E44.63022
G1 X55.827 Y196.911 E44.66859
G1 X55.28 Y196.37 E44.70697
G1 X54.792 Y195.775 E44.74536
G1 X54.369 Y195.133 E44.78372
G1 X54.014 Y194.45 E44.82212
G1 X53.733 Y193.735 E44.86045
G1 X53.527 Y192.993 E44.89887
G1 X53.399 Y192.235 E44.93722
G1 X53.35 Y191.386 E44.97965
G1 X53.35 Y188.386 E45.12932
G1 X53.39 Y187.618 E45.16769
G1 X53.509 Y186.858 E45.20607
G1 X53.707 Y186.115 E45.24443
G1 X53.981 Y185.396 E45.28282
G1 X54.328 Y184.71 E45.32117
G1 X54.744 Y184.063 E45.35955
G1 X54.85 Y183.931 E45.36799
G1 X54.85 Y131.846 E47.96652
G1 X54.369 Y131.133 E48.00943
G1 X54.014 Y130.45 E48.04784
G1 X53.733 Y129.735 E48.08616
G1 X53.527 Y128.993 E48.12458
G1 X53.399 Y128.235 E48.16293
G1 X53.35 Y127.386 E48.20536
G1 X53.35 Y124.386 E48.35503
G1 X53.39 Y123.618 E48.3934
G1 X53.507 Y122.871 E48.43112
G1 X53.401 Y122.257 E48.46221
G1 X53.35 Y121.386 E48.50574
G1 X53.35 Y118.403 E48.65456
G1 X53.39 Y117.635 E48.69293
G1 X53.509 Y116.875 E48.7313
G1 X53.707 Y116.132 E48.76967
G1 X53.981 Y115.413 E48.80805
G1 X54.328 Y114.727 E48.84641
G1 X54.744 Y114.08 E48.88478
G1 X54.85 Y113.948 E48.89323
G1 X54.85 Y61.846 E51.49261
G1 X54.369 Y61.133 E51.53552
G1 X54.014 Y60.45 E51.57392
G1 X53.733 Y59.735 E51.61225
G1 X53.527 Y58.993 E51.65067
G1 X53.399 Y58.235 E51.68902
G1 X53.35 Y57.386 E51.73145
G1 X53.35 Y54.405 E51.88017
G1 X53.39 Y53.637 E51.91854
G1 X53.509 Y52.877 E51.95692
G1 X53.707 Y52.134 E51.99528
G1 X53.981 Y51.415 E52.03367
G1 X54.328 Y50.729 E52.07202
G1 X54.744 Y50.082 E52.11039
G1 X55.225 Y49.482 E52.14876
G0 F3600 X55.621 Y49.642
G1 F1800 X56.158 Y49.121 E52.18609
G1 X56.748 Y48.662 E52.22338
G1 X57.384 Y48.267 E52.26073
G1 X58.058 Y47.943 E52.29804
G1 X58.763 Y47.693 E52.33536
G1 X59.491 Y47.519 E52.37271
G1 X60.233 Y47.424 E52.41003
G1 X60.706 Y47.405 E52.43364
G1 X63.706 Y47.386 E52.58332
G1 X64.453 Y47.421 E52.62063
G1 X65.192 Y47.536 E52.65794
G1 X65.915 Y47.729 E52.69527
G1 X66.613 Y47.998 E52.73259
G1 X67.278 Y48.34 E52.7699
G1 X67.903 Y48.751 E52.80722
G1 X68.057 Y48.877 E52.81715
G1 X151.948 Y48.886 E57.00248
G1 X152.248 Y48.652 E57.02147
G1 X152.884 Y48.257 E57.05882
G1 X153.558 Y47.933 E57.09613
G1 X154.263 Y47.683 E57.13345
G1 X154.991 Y47.509 E57.17079
G1 X155.733 Y47.414 E57.20811
G1 X156.229 Y47.395 E57.23287
G1 X159.229 Y47.386 E57.38254
G1 X159.976 Y47.424 E57.41986
G1 X160.715 Y47.541 E57.45719
G1 X161.437 Y47.736 E57.4945
G1 X162.134 Y48.008 E57.53183
G1 X162.798 Y48.352 E57.56914
G1 X163.422 Y48.765 E57.60647
G1 X163.998 Y49.242 E57.64378
G1 X164.52 Y49.778 E57.68111
G1 X164.981 Y50.367 E57.71842
G1 X165.377 Y51.002 E57.75576
G1 X165.704 Y51.675 E57.79309
G1 X165.956 Y52.379 E57.83039
G1 X166.132 Y53.106 E57.86771
G1 X166.229 Y53.848 E57.90505
G1 X166.25 Y54.386 E57.93191
G1 X166.25 Y57.369 E58.08073
G1 X166.21 Y58.116 E58.11805
G1 X166.091 Y58.854 E58.15534
G1 X165.893 Y59.576 E58.1927
G1 X165.62 Y60.272 E58.22999
G1 X165.273 Y60.935 E58.26733
G1 X164.858 Y61.558 E58.30467
G1 X164.75 Y61.687 E58.31307
G1 X164.75 Y114.072 E60.92657
G1 X164.993 Y114.384 E60.9463
G1 X165.388 Y115.02 E60.98365
G1 X165.712 Y115.694 E61.02096
G1 X165.962 Y116.399 E61.05828
G1 X166.136 Y117.127 E61.09562
G1 X166.231 Y117.869 E61.13294
G1 X166.25 Y118.386 E61.15875
G1 X166.25 Y121.367 E61.30747
G1 X166.21 Y122.114 E61.34479
G1 X166.091 Y122.852 E61.38209
G1 X166.08 Y122.892 E61.38416
G1 X166.136 Y123.127 E61.39621
G1 X166.231 Y123.869 E61.43353
G1 X166.25 Y124.386 E61.45934
G1 X166.25 Y127.386 E61.60901
G1 X166.21 Y128.133 E61.64633
G1 X166.091 Y128.871 E61.68363
G1 X165.893 Y129.593 E61.72098
G1 X165.62 Y130.289 E61.75828
G1 X165.273 Y130.952 E61.79561
G1 X164.858 Y131.575 E61.83296
G1 X164.75 Y131.704 E61.84135
G1 X164.75 Y184.072 E64.454
G1 X164.993 Y184.384 E64.47373
G1 X165.388 Y185.02 E64.51108
G1 X165.712 Y185.694 E64.54839
G1 X165.962 Y186.399 E64.58571
G1 X166.136 Y187.127 E64.62306
G1 X166.231 Y187.869 E64.66038
G1 X166.25 Y188.386 E64.68619
G1 X166.25 Y191.386 E64.83586
G1 X166.21 Y192.133 E64.87318
G1 X166.091 Y192.871 E64.91047
G1 X165.893 Y193.593 E64.94782
G1 X165.62 Y194.289 E64.98512
G1 X165.273 Y194.952 E65.02246
G1 X164.858 Y195.575 E65.0598
G1 X164.379 Y196.149 E65.0971
G1 X163.842 Y196.67 E65.13443
G1 X163.252 Y197.129 E65.17172
G1 X162.616 Y197.524 E65.20908
G1 X161.942 Y197.848 E65.24638
G1 X161.237 Y198.098 E65.2837
G1 X160.509 Y198.272 E65.32105
G1 X159.767 Y198.367 E65.35837
G1 X159.25 Y198.386 E65.38418
G1 X156.25 Y198.386 E65.53385
G1 X155.503 Y198.346 E65.57117
G1 X154.765 Y198.227 E65.60846
G1 X154.043 Y198.029 E65.64581
G1 X153.347 Y197.756 E65.68311
G1 X152.684 Y197.409 E65.72045
G1 X152.061 Y196.994 E65.75779
G1 X151.932 Y196.886 E65.76619
G1 X68.064 Y196.886 E69.95038
G1 X67.752 Y197.129 E69.97011
G1 X67.116 Y197.524 E70.00746
G1 X66.442 Y197.848 E70.04477
G1 X65.737 Y198.098 E70.08209
G1 X65.009 Y198.272 E70.11943
G1 X64.267 Y198.367 E70.15675
G1 X63.75 Y198.386 E70.18256
G1 X60.75 Y198.386 E70.33223
G1 X60.003 Y198.346 E70.36955
G1 X59.265 Y198.227 E70.40685
G1 X58.543 Y198.029 E70.4442
G1 X57.847 Y197.756 E70.4815
G1 X57.184 Y197.409 E70.51883
G1 X56.561 Y196.994 E70.55618
G1 X55.987 Y196.515 E70.59348
G1 X55.466 Y195.978 E70.63081
G1 X55.007 Y195.388 E70.6681
G1 X54.612 Y194.752 E70.70545
G1 X54.288 Y194.078 E70.74276
G1 X54.038 Y193.373 E70.78008
G1 X53.864 Y192.645 E70.81742
G1 X53.769 Y191.903 E70.85474
G1 X53.75 Y191.386 E70.88055
G1 X53.75 Y188.386 E71.03022
G1 X53.79 Y187.639 E71.06755
G1 X53.909 Y186.901 E71.10484
G1 X54.107 Y186.179 E71.14219
G1 X54.38 Y185.483 E71.17949
G1 X54.727 Y184.82 E71.21682
G1 X55.142 Y184.197 E71.25417
G1 X55.25 Y184.068 E71.26256
G1 X55.25 Y131.7 E73.87521
G1 X55.007 Y131.388 E73.89494
G1 X54.612 Y130.752 E73.9323
G1 X54.288 Y130.078 E73.9696
G1 X54.038 Y129.373 E74.00692
G1 X53.864 Y128.645 E74.04427
G1 X53.769 Y127.903 E74.08159
G1 X53.75 Y127.386 E74.1074
G1 X53.75 Y124.386 E74.25707
G1 X53.79 Y123.639 E74.29439
G1 X53.909 Y122.901 E74.33168
G1 X53.917 Y122.87 E74.33328
G1 X53.868 Y122.666 E74.34375
G1 X53.771 Y121.924 E74.38108
G1 X53.75 Y121.386 E74.40794
G1 X53.75 Y118.403 E74.55677
G1 X53.79 Y117.656 E74.59409
G1 X53.909 Y116.918 E74.63138
G1 X54.107 Y116.196 E74.66873
G1 X54.38 Y115.5 E74.70603
G1 X54.727 Y114.837 E74.74337
G1 X55.142 Y114.214 E74.78071
G1 X55.25 Y114.085 E74.78911
G1 X55.25 Y61.7 E77.4026
G1 X55.007 Y61.388 E77.42233
G1 X54.612 Y60.752 E77.45969
G1 X54.288 Y60.078 E77.49699
G1 X54.038 Y59.373 E77.53431
G1 X53.864 Y58.645 E77.57166
G1 X53.769 Y57.903 E77.60898
G1 X53.75 Y57.386 E77.63479
G1 X53.75 Y54.405 E77.78351
G1 X53.79 Y53.658 E77.82083
G1 X53.909 Y52.92 E77.85813
G1 X54.107 Y52.198 E77.89548
G1 X54.38 Y51.502 E77.93278
G1 X54.727 Y50.839 E77.97011
G1 X55.142 Y50.216 E78.00746
G1 X55.621 Y49.642 E78.04475
G0 F3600 X55.539 Y50.355
G1 F1800 X56.015 Y49.807 E78.08097
G1 X56.549 Y49.314 E78.11723
G1 X57.134 Y48.884 E78.15345
G1 X57.763 Y48.52 E78.18971
G1 X58.428 Y48.227 E78.22596
G1 X59.121 Y48.009 E78.2622
G1 X59.833 Y47.869 E78.29841
G1 X60.708 Y47.805 E78.34218
G1 X63.708 Y47.786 E78.49185
G1 X64.434 Y47.822 E78.52812
